!!!OTL: Der grausame Bruder Wir lobn die Heilig und die rein,
!!!ARE: Europa, Mitteleuropa, Deutschland
!!!YOR: 3, S. 260
!!    1631 gedruckt
!!!SCT: Q1068M
!!!YEM: Copyright 1995, estate of Helmut Schaffrath.
**kern
*ICvox
*Ivox
*M6/4
*k[b-]
*d:
{4d
=1
2d
4cn
2fn
4fn
=2
4g
4a
4g
2fn}
{4d
=3
2d
4cn
2fn
4fn
=4
4g
4a
4g
2fn}
{4ccn
=5
2ccn
4g
2a
4e
=6
4fn
4g
4e
2d}
{4ccn
=7
2ccn
4g
2a
4e
=8
4fn
4g
4e
2d}
==
!!!AGN: geistlich, Ruf
!! Melodievergleich zu Q0068L und J, anderes Lied.
!!!ONB: ESAC (Essen Associative Code) Database: BALLADE
!!!AMT: compound duple
!!!AIN: vox
!!!EED: Helmut Schaffrath
!!!EEV: 1.0
*-
